svg/Octicons/gear.svg

<svg xmlns="http://www.w3.org/2000/svg" viewBox="0 0 896 1024"><path d="m447.94 350c-89.41 0-161.94 72.53-161.94 162 0 89.37 72.53 162.06 161.94 162.06 89.44 0 161.44-72.69 161.44-162.06-.0001-89.47-72-162-161.44-162m324.69 255.06l-29.19 70.31 52.06 102.25 6.875 13.5-72.19 72.19-118.44-55.937-70.31 28.875-35.688 109.25-4.562 14.5h-102.03l-44.16-123.31-70.31-29-102.4 51.938-13.5 6.75-72.16-72.12 55.875-118.5-28.969-70.25-109.06-35.626-14.469-4.687v-101.97l123.41-44.22 28.969-70.19-51.906-102.47-6.844-13.438 72.06-72.06 118.59 55.844 70.22-29.03 35.656-109.19 4.594-14.468h102l44.19 123.47 70.12 29.03 102.44-51.969 13.625-6.844 72.12 72.06-55.875 118.41 28.875 70.35 109.37 35.656 14.375 4.594v101.94l-123.37 44.37"/></svg>

<svg height="1024" width="896" xmlns="http://www.w3.org/2000/svg">
  <path d="M447.938 350C358.531 350 286 422.531 286 512c0 89.375 72.531 162.062 161.938 162.062 89.438 0 161.438-72.688 161.438-162.062C609.375 422.531 537.375 350 447.938 350zM772.625 605.062l-29.188 70.312 52.062 102.25 6.875 13.5-72.188 72.188L611.75 807.375l-70.312 28.875L505.75 945.5l-4.562 14.5H399.156L355 836.688l-70.312-29-102.404 51.938-13.5 6.75-72.156-72.125 55.875-118.5-28.969-70.25L14.469 569.875 0 565.188V463.219L123.406 419l28.969-70.188-51.906-102.469-6.844-13.438 72.062-72.062 118.594 55.844 70.219-29.031 35.656-109.188L394.75 64h102l44.188 123.469 70.125 29.031L713.5 164.53099999999995l13.625-6.844 72.125 72.062-55.875 118.406L772.25 418.5l109.375 35.656L896 458.75v101.938L772.625 605.062z" />
</svg>
